X:168
T: Farben - Lied
N: A0206
O: Europa, Mitteleuropa, Deutschland
N: M. Praetorius, Mus. Sion. VIII. 1610 No. 230 "Im Thon, Nach
N: gruener Farb mein Herz verlangt"
R: Romanze, Ballade, Lied
M: 4/2
L: 1/4
K: F
F2F2F2 | c2c2d2e2 | f4
c4 | B4c2A2G4 | F8 | z2
F2F2F2 | c2c2d2e2 | f4
c4 | B4c2A2G4 | F8 | z2
c2c3B | A2F2A2B2 | c4
f4 | g4e2f2d4 | c4z2
c2 | c2d2e2c2 | f2d2c3
c | d2f2e2d2 | c4A4 | G4
F4 | A4c2A2G4 | F8 | z2

@@@ Tune index: 168
